packages/ffe-icons/icons/open/400/sm/cloudy_snowing.svg

<svg xmlns="http://www.w3.org/2000/svg" height="20" viewBox="0 -960 960 960" width="20"><path d="M264.211-216Q249-216 238.5-226.289q-10.5-10.29-10.5-25.5Q228-267 238.289-277.5q10.29-10.5 25.5-10.5Q279-288 289.5-277.711q10.5 10.29 10.5 25.5Q300-237 289.711-226.5q-10.29 10.5-25.5 10.5Zm432 0Q681-216 670.5-226.289q-10.5-10.29-10.5-25.5Q660-267 670.289-277.5q10.29-10.5 25.5-10.5Q711-288 721.5-277.711q10.5 10.29 10.5 25.5Q732-237 721.711-226.5q-10.29 10.5-25.5 10.5Zm-324 144Q357-72 346.5-82.29 336-92.579 336-107.788 336-123 346.289-133.5q10.29-10.5 25.5-10.5Q387-144 397.5-133.711q10.5 10.29 10.5 25.5Q408-93 397.711-82.5q-10.29 10.5-25.5 10.5Zm108-144Q465-216 454.5-226.289q-10.5-10.29-10.5-25.5Q444-267 454.289-277.5q10.29-10.5 25.5-10.5Q495-288 505.5-277.711q10.5 10.29 10.5 25.5Q516-237 505.711-226.5q-10.29 10.5-25.5 10.5Zm108 144Q573-72 562.5-82.29 552-92.579 552-107.788 552-123 562.289-133.5q10.29-10.5 25.5-10.5Q603-144 613.5-133.711q10.5 10.29 10.5 25.5Q624-93 613.711-82.5q-10.29 10.5-25.5 10.5ZM295-336q-85 0-142-61.275T96-545q0-77 52.5-133T278-743q31.105-56.533 85.052-88.766Q417-864 479.574-864q85.329 0 148.378 54.5Q691-755 705-672q67 3 113 51.642Q864-571.717 864-504q0 70-49 119t-119 49H295Zm5-72h396q40.32 0 68.16-27.775 27.84-27.774 27.84-68Q792-544 764.16-572q-27.84-28-68.16-28h-53l-9-60q-8-57-52-94.5T480-792q-54 0-95 33t-61 87h-24.085Q245-672 206.5-633.36 168-594.719 168-540.337 168-485 206.657-446.5T300-408Zm180-191Z"/></svg>

<svg xmlns="http://www.w3.org/2000/svg" height="20" viewBox="0 -960 960 960" width="20"><path d="M264.21-216q-15.21 0-25.71-10.29t-10.5-25.5q0-15.21 10.29-25.71t25.5-10.5q15.21 0 25.71 10.29t10.5 25.5q0 15.21-10.29 25.71t-25.5 10.5Zm432 0q-15.21 0-25.71-10.29t-10.5-25.5q0-15.21 10.29-25.71t25.5-10.5q15.21 0 25.71 10.29t10.5 25.5q0 15.21-10.29 25.71t-25.5 10.5Zm-324 144Q357-72 346.5-82.29t-10.5-25.5q0-15.21 10.29-25.71t25.5-10.5q15.21 0 25.71 10.29t10.5 25.5Q408-93 397.71-82.5T372.21-72Zm108-144q-15.21 0-25.71-10.29t-10.5-25.5q0-15.21 10.29-25.71t25.5-10.5q15.21 0 25.71 10.29t10.5 25.5q0 15.21-10.29 25.71t-25.5 10.5Zm108 144Q573-72 562.5-82.29t-10.5-25.5q0-15.21 10.29-25.71t25.5-10.5q15.21 0 25.71 10.29t10.5 25.5Q624-93 613.71-82.5T588.21-72ZM295-336q-85 0-142-61.27Q96-458.55 96-545q0-77 52.5-133T278-743q31.1-56.53 85.05-88.77Q417-864 479.57-864q85.33 0 148.38 54.5T705-672q67 3 113 51.64T864-504q0 70-49 119t-119 49H295Zm5-72h396q40.32 0 68.16-27.77 27.84-27.78 27.84-68Q792-544 764.16-572q-27.84-28-68.16-28h-53l-9-60q-8-57-52-94.5T480-792q-54 0-95 33t-61 87h-24.09q-54.91 0-93.41 38.64T168-540.34q0 55.34 38.66 93.84Q245.31-408 300-408Zm180-191Z"/></svg>
